X: 1
T:An Dro
C:TUD
M:4/4
L:1/8
K:D
D2FD E3G|F2DD EFD2|D2CD E3G|F2D2 E2E2|\
D2CD E3G|F2DD EFD2|D2CD E2GE|FGEF D4:|
|:A2FD A3F|ABGA F4|G2EF G2GA|FEFG A2FD|\
A2FD A3F|ABGA F4|G2FG A2DE|FDEF D4:|
